X: 0611
T: Mrs. MacLeod of Raasay
T: 8 x 32R 3C
T: RSCDS Book 6
P: Mrs. MacLeod of Rasay's Reel
C: SRSNH 7.13 (arr. B. McOwen)
C: Arr. T. Traub 11-24-2002
R: Reel
%
K: A
M: 4/4
L: 1/8
c |\
"A"A2 a2 "D"fefa | "A"cccB c2 cB | "A"A2 a2 "F#m"fefa | "Bm"BBBA "E7"B Bc | "A"A2 a2 "D"fefa |
"A"cccB "A7"c2 ce | "D"fgfe f2 ef/g/ | "Bm"a2 ec"E7"B2 B || c | "A"AAcA eccf | "A"eccB c2 ca |
"A"AAcA "F#m"eccf | "Bm"ecBA "E7"B2 Bc | "A"AAcA eccf | "A"eccB "A7"c2 ce | "D"fgfe f2 ef/g/ | "A"a2 ec "E7"B2 B |]
%%center Book06/other/06__1-Mrs_MacLeod_of_Raasay.abc

%%sep 1 1 500
%%sep 1 1 500

